**harmony	**harte	**kern	**silbe	**rhyme	**timestamp	**phrase
*M4/4	*M4/4	*ICvox	*	*	*	*
*	*	*VRlead	*	*	*	*
*	*	*Hstimme	*	*	*	*
*B-:	*B-:	*B-:	*	*	*	*
*	*	*M4/4	*	*	*	*
*	*	*clefG2	*	*	*	*
1r;	1r	r;	.	.	0	.
=1	=1	=1	=1	=1	=1	=1
*>Letter>A	*>Letter>A	*>Letter>A	*>Letter>A	*>Letter>A	*>Letter>A	*>Letter>A
*>Label>Intro	*>Label>Intro	*>Label>Intro	*>Label>Intro	*>Label>Intro	*>Label>Intro	*>Label>Intro
2B-M	B-:maj	1r	.	.	1.348	newline
2FM	F:maj	.	.	.	2.315	.
=2	=2	=2	=2	=2	=2	=2
2FMm	F:9/5	1r	.	.	3.281	.
2E-M	E-:maj	.	.	.	4.248	.
=3	=3	=3	=3	=3	=3	=3
2B-M	B-:maj	1r	.	.	5.215	.
2FM	F:maj	.	.	.	6.182	.
=4	=4	=4	=4	=4	=4	=4
2FMm	F:9/5	1r	.	.	7.149	.
2E-M	E-:maj	.	.	.	8.116	.
=5	=5	=5	=5	=5	=5	=5
2B-M	B-:maj	1r	.	.	9.082	newline
2FM	F:maj	.	.	.	10.054	.
=6	=6	=6	=6	=6	=6	=6
2FMm	F:9/5	1r	.	.	11.026	.
2E-M	E-:maj	.	.	.	11.997	.
=7	=7	=7	=7	=7	=7	=7
2B-M	B-:maj	1r	.	.	12.969	.
2FM	F:maj	.	.	.	13.941	.
=8	=8	=8	=8	=8	=8	=8
2FMm	F:9/5	1r	.	.	14.912	.
2E-M	E-:maj	.	.	.	15.884	.
=9	=9	=9	=9	=9	=9	=9
*>Letter>A	*>Letter>A	*>Letter>A	*>Letter>A	*>Letter>A	*>Letter>A	*>Letter>A
*>Label>Verse	*>Label>Verse	*>Label>Verse	*>Label>Verse	*>Label>Verse	*>Label>Verse	*>Label>Verse
2B-M	B-:maj	8r	.	.	16.856	newline
.	.	8F	I	.	.	.
.	.	8B-	was	.	.	.
.	.	8d	so	.	.	.
2FM	F:maj	4.c	young	.	17.823	.
.	.	8B-	when	.	.	.
=10	=10	=10	=10	=10	=10	=10
2FMm	F:9/5	8c	I	.	18.791	.
.	.	8c	was	.	.	.
.	.	8B-	born.	A	.	.
.	.	[8G	_	.	.	.
2E-M	E-:maj	4G]	_	.	19.758	.
.	.	4r	.	.	.	.
=11	=11	=11	=11	=11	=11	=11
2B-M	B-:maj	8r	.	.	20.726	.
.	.	8F	My	.	.	.
.	.	8G	eyes	.	.	.
.	.	8B-	could	.	.	.
2FM	F:maj	8c	not	.	21.693	.
.	.	8c	yet	.	.	.
.	.	8r	.	.	.	.
.	.	8B-	see.	B	.	.
=12	=12	=12	=12	=12	=12	=12
2FMm	F:9/5	4G	_	.	22.66	.
.	.	4r	.	.	.	.
2E-M	E-:maj	2r	.	.	23.628	.
=13	=13	=13	=13	=13	=13	=13
2B-M	B-:maj	8r	.	.	24.595	newline
.	.	8F	And	.	.	.
.	.	8d	by	.	.	.
.	.	8d	the	.	.	.
2FM	F:maj	4c	time	.	25.563	.
.	.	8r	.	.	.	.
.	.	8B-	of	.	.	.
=14	=14	=14	=14	=14	=14	=14
2FMm	F:9/5	8c	my	.	26.53	.
.	.	4c	first	.	.	.
.	.	8B-	dawn.	A	.	.
2E-M	E-:maj	4G	_	.	27.498	.
.	.	4r	.	.	.	.
=15	=15	=15	=15	=15	=15	=15
2B-M	B-:maj	8r	.	.	28.465	.
.	.	8F	Some-	.	.	.
.	.	8G	-bo-	.	.	.
.	.	8B-	-dy	.	.	.
2FM	F:maj	4c	hol-	.	29.432	.
.	.	8G	-ding	.	.	.
.	.	[8G	me,	B	.	.
=16	=16	=16	=16	=16	=16	=16
2FMm	F:9/5	8G]	_	.	30.4	.
.	.	4.r	.	.	.	.
2E-M	E-:maj	8r	.	.	31.367	.
.	.	8G	they	.	.	.
.	.	8G	said	.	.	.
.	.	8F	I	.	.	.
=17	=17	=17	=17	=17	=17	=17
*>Letter>B	*>Letter>B	*>Letter>B	*>Letter>B	*>Letter>B	*>Letter>B	*>Letter>B
*>Label>Chorus	*>Label>Chorus	*>Label>Chorus	*>Label>Chorus	*>Label>Chorus	*>Label>Chorus	*>Label>Chorus
2B-M	B-:maj	8r	.	.	32.335	newline
.	.	8d	wel-	.	.	.
.	.	8d	-come	.	.	.
.	.	[8c	you	C	.	.
2FM	F:maj	4c]	_	.	33.321	.
.	.	8r	.	.	.	.
.	.	8B-	to	.	.	.
=18	=18	=18	=18	=18	=18	=18
4Gm	G:min	8B-	Crack-	.	34.308	.
.	.	8B-	-er-	.	.	.
4FM	F:maj	4A	-box	.	34.801	.
2E-M	E-:maj	8G	Pa-	.	35.295	.
.	.	4.B-	-lace.	.	.	.
=19	=19	=19	=19	=19	=19	=19
2B-M	B-:maj	8r	.	.	36.281	.
.	.	8B-	We've	.	.	.
.	.	8B-	been	.	.	.
.	.	8B-	ex-	.	.	.
2FM	F:maj	8c	-pec-	.	37.268	.
.	.	4B-	-ting	.	.	.
.	.	[8d	you.	C	.	.
=20	=20	=20	=20	=20	=20	=20
1Dm	D:min	8d]	_	.	38.254	.
.	.	8f	_	.	.	.
.	.	2d	_	.	.	.
.	.	4r	.	.	.	.
=21	=21	=21	=21	=21	=21	=21
2E-M	E-:maj	8r	.	.	40.227	newline
.	.	8B-	You	.	.	.
.	.	8B-	bring	.	.	.
.	.	8B-	such	.	.	.
2FM	F:maj	4.c	joy	.	41.223	.
.	.	8B-	in	.	.	.
=22	=22	=22	=22	=22	=22	=22
4Gm	G:min	8B-	Crack-	.	42.218	.
.	.	8B-	-er-	.	.	.
4FM	F:maj	4A	-box	.	42.715	.
2E-M	E-:maj	8G	Pa-	.	43.213	.
.	.	4B-	-lace.	.	.	.
.	.	[8B-	No	.	.	.
=23	=23	=23	=23	=23	=23	=23
1E-mm	E-:min7	8B-]	_	.	44.208	.
.	.	4B-	mat-	.	.	.
.	.	8B-	-ter	.	.	.
.	.	8G-	where	.	.	.
.	.	4A-	you	.	.	.
.	.	[8B-	roam	.	.	.
=24	=24	=24	=24	=24	=24	=24
1E-mm	E-:min7	8B-]	_	.	46.199	.
.	.	8d-	know	.	.	.
.	.	8d-	our	.	.	.
.	.	[8d-	love	.	.	.
.	.	8d-]	_	.	.	.
.	.	4d-	is	.	.	.
.	.	[8c	true.	C	.	.
=25	=25	=25	=25	=25	=25	=25
*>Letter>C	*>Letter>C	*>Letter>C	*>Letter>C	*>Letter>C	*>Letter>C	*>Letter>C
*>Label>Interlude	*>Label>Interlude	*>Label>Interlude	*>Label>Interlude	*>Label>Interlude	*>Label>Interlude	*>Label>Interlude
2B-M	B-:maj	8c]	_	.	48.189	newline
.	.	4.B-	_	.	.	.
2FM	F:maj	2r	.	.	49.172	.
=26	=26	=26	=26	=26	=26	=26
4Gm	G:min	1r	.	.	50.155	.
4FM	F:maj	.	.	.	50.646	.
2E-M	E-:maj	.	.	.	51.137	.
=27	=27	=27	=27	=27	=27	=27
1E-mm	E-:min7	1r	.	.	52.12	.
=28	=28	=28	=28	=28	=28	=28
1E-mm	E-:min7	1r	.	.	54.086	.
=29	=29	=29	=29	=29	=29	=29
*>Letter>A	*>Letter>A	*>Letter>A	*>Letter>A	*>Letter>A	*>Letter>A	*>Letter>A
*>Label>Verse	*>Label>Verse	*>Label>Verse	*>Label>Verse	*>Label>Verse	*>Label>Verse	*>Label>Verse
2B-M	B-:maj	8r	.	.	56.051	newline
.	.	8F	While	.	.	.
.	.	8d	gro-	.	.	.
.	.	8d	-wing	.	.	.
2FM	F:maj	4c	up	.	57.042	.
.	.	8r	.	.	.	.
.	.	8B-	or	.	.	.
=30	=30	=30	=30	=30	=30	=30
2FMm	F:9/5	8c	try-	.	58.032	.
.	.	4c	-ing	.	.	.
.	.	8B-	to,	C	.	.
2E-M	E-:maj	4G	_	.	59.023	.
.	.	4r	.	.	.	.
=31	=31	=31	=31	=31	=31	=31
2B-M	B-:maj	8r	.	.	60.014	.
.	.	8F	not	.	.	.
.	.	8G	kno-	.	.	.
.	.	8B-	-wing	.	.	.
2FM	F:maj	4c	where	.	61.004	.
.	.	8G	to	.	.	.
.	.	[8G	start.	D	.	.
=32	=32	=32	=32	=32	=32	=32
2FMm	F:9/5	8G]	_	.	61.995	.
.	.	8r	.	.	.	.
.	.	4r	.	.	.	.
2E-M	E-:maj	2r	.	.	62.986	.
=33	=33	=33	=33	=33	=33	=33
2B-M	B-:maj	8r	.	.	63.976	newline
.	.	8F	I	.	.	.
.	.	8d	looked	.	.	.
.	.	8d	a-	.	.	.
2FM	F:maj	4.c	-round	.	64.944	.
.	.	8B-	for	.	.	.
=34	=34	=34	=34	=34	=34	=34
2FMm	F:9/5	8c	some-	.	65.912	.
.	.	4c	-one	.	.	.
.	.	8B-	who	C	.	.
2E-M	E-:maj	4G	_	.	66.88	.
.	.	4r	.	.	.	.
=35	=35	=35	=35	=35	=35	=35
2B-M	B-:maj	8r	.	.	67.848	.
.	.	8F	may	.	.	.
.	.	8G	help	.	.	.
.	.	8B-	re-	.	.	.
2FM	F:maj	4c	-veal	.	68.816	.
.	.	8G	my	.	.	.
.	.	[8G	heart.	D	.	.
=36	=36	=36	=36	=36	=36	=36
2FMm	F:9/5	8G]	_	.	69.784	.
.	.	8r	.	.	.	.
.	.	8r	.	.	.	.
.	.	8G	And	.	.	.
2E-M	E-:maj	16G	some-	.	70.752	.
.	.	16G	-one	.	.	.
.	.	[8G	said	.	.	.
.	.	8G]	_	.	.	.
.	.	[8F	while	.	.	.
=37	=37	=37	=37	=37	=37	=37
*>Letter>B	*>Letter>B	*>Letter>B	*>Letter>B	*>Letter>B	*>Letter>B	*>Letter>B
*>Label>Chorus	*>Label>Chorus	*>Label>Chorus	*>Label>Chorus	*>Label>Chorus	*>Label>Chorus	*>Label>Chorus
2B-M	B-:maj	8F]	_	.	71.72	newline
.	.	8d	you're	.	.	.
.	.	8d	a	.	.	.
.	.	[8c	part	D	.	.
2FM	F:maj	4c]	_	.	72.705	.
.	.	8r	.	.	.	.
.	.	8B-	of	.	.	.
=38	=38	=38	=38	=38	=38	=38
4Gm	G:min	8B-	Cra-	.	73.691	.
.	.	8B-	-cer-	.	.	.
4FM	F:maj	4A	-box	.	74.184	.
2E-M	E-:maj	8G	Pa-	.	74.676	.
.	.	4.B-	-lace	.	.	.
=39	=39	=39	=39	=39	=39	=39
2B-M	B-:maj	8r	.	.	75.662	.
.	.	8B-	do	.	.	.
.	.	8B-	what	.	.	.
.	.	8B-	the	.	.	.
2FM	F:maj	8c	rest	.	76.647	.
.	.	4B-	all	.	.	.
.	.	8d	do	C	.	.
=40	=40	=40	=40	=40	=40	=40
1Dm	D:min	8r	.	.	77.633	.
.	.	8f	_	.	.	.
.	.	2d	_	.	.	.
.	.	4r	.	.	.	.
=41	=41	=41	=41	=41	=41	=41
2E-M	E-:maj	8r	.	.	79.604	newline
.	.	8B-	or	.	.	.
.	.	8B-	face	.	.	.
.	.	8B-	the	.	.	.
2FM	F:maj	4c	fact	.	80.589	.
.	.	8r	.	.	.	.
.	.	8B-	that	.	.	.
=42	=42	=42	=42	=42	=42	=42
4Gm	G:min	8B-	Crack-	.	81.574	.
.	.	8B-	-er-	.	.	.
4FM	F:maj	4A	-box	.	82.066	.
2E-M	E-:maj	8G	Pa-	.	82.559	.
.	.	4B-	-lace	.	.	.
.	.	[8B-	may	.	.	.
=43	=43	=43	=43	=43	=43	=43
1E-mm	E-:min7	8B-]	_	.	83.544	.
.	.	4B-	have	.	.	.
.	.	8B-	no	.	.	.
.	.	8G-	o-	.	.	.
.	.	4A-	-ther	.	.	.
.	.	[8B-	choice	.	.	.
=44	=44	=44	=44	=44	=44	=44
1E-mm	E-:min7	8B-]	_	.	85.513	.
.	.	8d-	than	.	.	.
.	.	8d-	to	.	.	.
.	.	8d-	de-	.	.	.
.	.	[8d-	-port	D	.	.
.	.	4d-]	_	.	.	.
.	.	8c	you	C	.	.
=45	=45	=45	=45	=45	=45	=45
*>Letter>C	*>Letter>C	*>Letter>C	*>Letter>C	*>Letter>C	*>Letter>C	*>Letter>C
*>Label>Interlude	*>Label>Interlude	*>Label>Interlude	*>Label>Interlude	*>Label>Interlude	*>Label>Interlude	*>Label>Interlude
2B-M	B-:maj	4B-	_	.	87.483	newline
.	.	4r	.	.	.	.
2FM	F:maj	2r	.	.	88.469	.
=46	=46	=46	=46	=46	=46	=46
4Gm	G:min	1r	.	.	89.456	.
4FM	F:maj	.	.	.	89.949	.
2E-M	E-:maj	.	.	.	90.443	.
=47	=47	=47	=47	=47	=47	=47
1E-mm	E-:min7	1r	.	.	91.429	.
=48	=48	=48	=48	=48	=48	=48
1E-mm	E-:min7	1r	.	.	93.402	.
=49	=49	=49	=49	=49	=49	=49
*>Letter>D	*>Letter>D	*>Letter>D	*>Letter>D	*>Letter>D	*>Letter>D	*>Letter>D
*>Label>Solo	*>Label>Solo	*>Label>Solo	*>Label>Solo	*>Label>Solo	*>Label>Solo	*>Label>Solo
2B-M	B-:maj	1r	.	.	95.376	newline
2FM	F:maj	.	.	.	96.341	.
=50	=50	=50	=50	=50	=50	=50
2Cmm	C:min11	1r	.	.	97.305	.
2E-M	E-:maj	.	.	.	98.27	.
=51	=51	=51	=51	=51	=51	=51
2B-M	B-:maj	1r	.	.	99.235	.
2FM	F:maj	.	.	.	100.2	.
=52	=52	=52	=52	=52	=52	=52
2Cmm	C:min11	1r	.	.	101.165	.
2E-M	E-:maj	.	.	.	102.13	.
=53	=53	=53	=53	=53	=53	=53
2B-M	B-:maj	1r	.	.	103.095	newline
2FM	F:maj	.	.	.	104.06	.
=54	=54	=54	=54	=54	=54	=54
2Cmm	C:min11	1r	.	.	105.026	.
2E-M	E-:maj	.	.	.	105.991	.
=55	=55	=55	=55	=55	=55	=55
2B-M	B-:maj	1r	.	.	106.957	.
2FM	F:maj	.	.	.	107.922	.
=56	=56	=56	=56	=56	=56	=56
2Cmm	C:min11	2r	.	.	108.887	.
2E-M	E-:maj	8r	.	.	109.853	.
.	.	8F	And	.	.	.
.	.	4F	I	.	.	.
=57	=57	=57	=57	=57	=57	=57
*>Letter>B	*>Letter>B	*>Letter>B	*>Letter>B	*>Letter>B	*>Letter>B	*>Letter>B
*>Label>Chorus	*>Label>Chorus	*>Label>Chorus	*>Label>Chorus	*>Label>Chorus	*>Label>Chorus	*>Label>Chorus
2B-M	B-:maj	8r	.	.	110.818	newline
.	.	8d	wel-	.	.	.
.	.	8d	-come	.	.	.
.	.	[8c	you	C	.	.
2FM	F:maj	4c]	_	.	111.798	.
.	.	8r	.	.	.	.
.	.	8B-	to	.	.	.
=58	=58	=58	=58	=58	=58	=58
4Gm	G:min	8B-	Crack-	.	112.778	.
.	.	8B-	-er-	.	.	.
4FM	F:maj	4A	-box	.	113.268	.
2E-M	E-:maj	8G	Pa-	.	113.758	.
.	.	4.B-	-lace.	.	.	.
=59	=59	=59	=59	=59	=59	=59
2B-M	B-:maj	8r	.	.	114.737	.
.	.	8B-	We've	.	.	.
.	.	8B-	been	.	.	.
.	.	8B-	ex-	.	.	.
2FM	F:maj	8c	-pec-	.	115.717	.
.	.	4B-	-ting	.	.	.
.	.	[8d	you.	C	.	.
=60	=60	=60	=60	=60	=60	=60
1Dm	D:min	8d]	_	.	116.697	.
.	.	8f	_	.	.	.
.	.	2d	_	.	.	.
.	.	4r	.	.	.	.
=61	=61	=61	=61	=61	=61	=61
2E-M	E-:maj	8r	.	.	118.657	newline
.	.	8B-	You	.	.	.
.	.	8B-	bring	.	.	.
.	.	8B-	such	.	.	.
2FM	F:maj	4.c	joy	.	119.648	.
.	.	8B-	in	.	.	.
=62	=62	=62	=62	=62	=62	=62
4Gm	G:min	8B-	Crack-	.	120.64	.
.	.	8B-	-er-	.	.	.
4FM	F:maj	4A	-box	.	121.136	.
2E-M	E-:maj	8G	Pa-	.	121.631	.
.	.	4B-	-lace.	.	.	.
.	.	[8B-	No	.	.	.
=63	=63	=63	=63	=63	=63	=63
1E-mm	E-:min7	8B-]	_	.	122.623	.
.	.	8B-	mat-	.	.	.
.	.	4G-	-ter	.	.	.
.	.	8G-	where	.	.	.
.	.	4A-	you	.	.	.
.	.	[8B-	roam	.	.	.
=64	=64	=64	=64	=64	=64	=64
1E-mm	E-:min7	8B-]	_	.	124.606	.
.	.	8d-	know	.	.	.
.	.	8d-	our	.	.	.
.	.	[8d-	love	.	.	.
.	.	8d-]	_	.	.	.
.	.	4d-	is	.	.	.
.	.	[8c	true.	C	.	.
=65	=65	=65	=65	=65	=65	=65
*>Letter>D2	*>Letter>D2	*>Letter>D2	*>Letter>D2	*>Letter>D2	*>Letter>D2	*>Letter>D2
*>Label>Interlude	*>Label>Interlude	*>Label>Interlude	*>Label>Interlude	*>Label>Interlude	*>Label>Interlude	*>Label>Interlude
2B-M	B-:maj	8c]	_	.	126.589	newline
.	.	4.B-	_	.	.	.
2FM	F:maj	2r	.	.	127.566	.
=66	=66	=66	=66	=66	=66	=66
1Cmm	C:min11	1r	.	.	128.543	.
=67	=67	=67	=67	=67	=67	=67
2B-M	B-:maj	1r	.	.	130.496	.
2FM	F:maj	.	.	.	131.473	.
=68	=68	=68	=68	=68	=68	=68
1Cmm	C:min11	8r	.	.	132.45	.
.	.	8B-	It's	.	.	.
.	.	4c	true,	.	.	.
.	.	8A	it's	.	.	.
.	.	8B-	true.	.	.	.
.	.	8A	_	.	.	.
.	.	8r	.	.	.	.
=69	=69	=69	=69	=69	=69	=69
2B-M	B-:maj	1r	.	.	134.404	newline
2FM	F:maj	.	.	.	135.369	.
=70	=70	=70	=70	=70	=70	=70
1Cmm	C:min11	1r	.	.	136.335	.
=71	=71	=71	=71	=71	=71	=71
2B-M	B-:maj	1r	.	.	138.267	.
2FM	F:maj	.	.	.	139.233	.
=72	=72	=72	=72	=72	=72	=72
1Cmm	C:min11	1r	.	.	140.199	.
=73	=73	=73	=73	=73	=73	=73
*>Letter>A	*>Letter>A	*>Letter>A	*>Letter>A	*>Letter>A	*>Letter>A	*>Letter>A
*>Label>Verse	*>Label>Verse	*>Label>Verse	*>Label>Verse	*>Label>Verse	*>Label>Verse	*>Label>Verse
2B-M	B-:maj	8r	.	.	142.131	newline
.	.	8F	Some-	.	.	.
.	.	8d	-times	.	.	.
.	.	8d	are	.	.	.
2FM	F:maj	4c	good,	.	143.091	.
.	.	8r	.	.	.	.
.	.	8B-	some-	.	.	.
=74	=74	=74	=74	=74	=74	=74
2FMm	F:9/5	8c	-times	.	144.051	.
.	.	8c	are	.	.	.
.	.	8B-	bad.	.	.	.
.	.	[8G	_	.	.	.
2E-M	E-:maj	4G]	_	.	145.012	.
.	.	4r	.	.	.	.
=75	=75	=75	=75	=75	=75	=75
2B-M	B-:maj	8r	.	.	145.972	.
.	.	8F	That's	.	.	.
.	.	8G	all	.	.	.
.	.	8B-	a	.	.	.
2FM	F:maj	4c	part	.	146.932	.
.	.	8G	of	.	.	.
.	.	[8G	life.	E	.	.
=76	=76	=76	=76	=76	=76	=76
2FMm	F:9/5	8G]	_	.	147.893	.
.	.	8r	.	.	.	.
.	.	4r	.	.	.	.
2E-M	E-:maj	2r	.	.	148.853	.
=77	=77	=77	=77	=77	=77	=77
2B-M	B-:maj	8r	.	.	149.813	newline
.	.	8F	And	.	.	.
.	.	8d	stan-	.	.	.
.	.	8d	-ding	.	.	.
2FM	F:maj	4.c	in	.	150.776	.
.	.	8B-	bet-	.	.	.
=78	=78	=78	=78	=78	=78	=78
2FMm	F:9/5	8c	-ween	.	151.739	.
.	.	4c	them	.	.	.
.	.	8B-	all.	.	.	.
2E-M	E-:maj	4G	_	.	152.702	.
.	.	4r	.	.	.	.
=79	=79	=79	=79	=79	=79	=79
2B-M	B-:maj	8r	.	.	153.665	.
.	.	8F	I	.	.	.
.	.	8G	met	.	.	.
.	.	8B-	a	.	.	.
2FM	F:maj	4c	Mis-	.	154.628	.
.	.	8G	-ter	.	.	.
.	.	[8G	Grief,	E	.	.
=80	=80	=80	=80	=80	=80	=80
2FMm	F:9/5	8G]	_	.	155.591	.
.	.	4.r	.	.	.	.
2E-M	E-:maj	16G	and	.	156.553	.
.	.	16G	he	.	.	.
.	.	[8G	said	.	.	.
.	.	8G]	_	.	.	.
.	.	8F	I	.	.	.
=81	=81	=81	=81	=81	=81	=81
*>Letter>B	*>Letter>B	*>Letter>B	*>Letter>B	*>Letter>B	*>Letter>B	*>Letter>B
*>Label>Chorus	*>Label>Chorus	*>Label>Chorus	*>Label>Chorus	*>Label>Chorus	*>Label>Chorus	*>Label>Chorus
2B-M	B-:maj	8r	.	.	157.516	newline
.	.	8d	wel-	.	.	.
.	.	8d	-come	.	.	.
.	.	[8c	you	C	.	.
2FM	F:maj	4c]	_	.	158.498	.
.	.	8r	.	.	.	.
.	.	8B-	to	.	.	.
=82	=82	=82	=82	=82	=82	=82
4Gm	G:min	8B-	Crack-	.	159.48	.
.	.	8B-	-er-	.	.	.
4FM	F:maj	4A	-box	.	159.971	.
2E-M	E-:maj	8G	Pa-	.	160.462	.
.	.	4.B-	-lace	.	.	.
=83	=83	=83	=83	=83	=83	=83
2B-M	B-:maj	8r	.	.	161.444	.
.	.	8B-	was	.	.	.
.	.	8B-	not	.	.	.
.	.	8B-	ex-	.	.	.
2FM	F:maj	8c	-pec-	.	162.425	.
.	.	4B-	-ting	.	.	.
.	.	[8d	you.	C	.	.
=84	=84	=84	=84	=84	=84	=84
1Dm	D:min	8d]	_	.	163.407	.
.	.	8f	_	.	.	.
.	.	2d	_	.	.	.
.	.	4r	.	.	.	.
=85	=85	=85	=85	=85	=85	=85
2E-M	E-:maj	8r	.	.	165.371	newline
.	.	8B-	Let's	.	.	.
.	.	8B-	rap	F	.	.
.	.	8B-	and	.	.	.
2FM	F:maj	4c	tap	F	166.354	.
.	.	8r	.	.	.	.
.	.	8B-	at	.	.	.
=86	=86	=86	=86	=86	=86	=86
4Gm	G:min	8B-	Crack-	.	167.338	.
.	.	8B-	-er-	.	.	.
4FM	F:maj	4A	-box	.	167.83	.
2E-M	E-:maj	8G	Pa-	.	168.322	.
.	.	4B-	-lace,	.	.	.
.	.	[8B-	know	.	.	.
=87	=87	=87	=87	=87	=87	=87
1E-mm	E-:min7	8B-]	_	.	169.305	.
.	.	4B-	that	.	.	.
.	.	8B-	the	.	.	.
.	.	8G-	Lord	.	.	.
.	.	4A-	is	.	.	.
.	.	[8B-	well	.	.	.
=88	=88	=88	=88	=88	=88	=88
1E-mm	E-:min7	8B-]	_	.	171.272	.
.	.	8d-	and	.	.	.
.	.	8d-	in-	.	.	.
.	.	[8d-	-side	.	.	.
.	.	8d-]	_	.	.	.
.	.	4d-	of	.	.	.
.	.	[8c	you.	C	.	.
=89	=89	=89	=89	=89	=89	=89
*>Letter>C	*>Letter>C	*>Letter>C	*>Letter>C	*>Letter>C	*>Letter>C	*>Letter>C
*>Label>Interlude	*>Label>Interlude	*>Label>Interlude	*>Label>Interlude	*>Label>Interlude	*>Label>Interlude	*>Label>Interlude
2B-M	B-:maj	8c]	_	.	173.24	newline
.	.	4.B-	_	.	.	.
2FM	F:maj	2r	.	.	174.202	.
=90	=90	=90	=90	=90	=90	=90
4Gm	G:min	1r	.	.	175.165	.
4FM	F:maj	.	.	.	175.647	.
2E-M	E-:maj	.	.	.	176.128	.
=91	=91	=91	=91	=91	=91	=91
1E-mm	E-:min7	1r	.	.	177.091	.
=92	=92	=92	=92	=92	=92	=92
1E-mm	E-:min7	2r	.	.	179.017	.
.	.	8r	.	.	.	.
.	.	8F	And	.	.	.
.	.	4F	we	.	.	.
=93	=93	=93	=93	=93	=93	=93
*>Letter>B	*>Letter>B	*>Letter>B	*>Letter>B	*>Letter>B	*>Letter>B	*>Letter>B
*>Label>Chorus	*>Label>Chorus	*>Label>Chorus	*>Label>Chorus	*>Label>Chorus	*>Label>Chorus	*>Label>Chorus
2B-M	B-:maj	8r	.	.	180.942	newline
.	.	8d	wel-	.	.	.
.	.	8d	-come	.	.	.
.	.	[8c	you	C	.	.
2FM	F:maj	4c]	_	.	181.909	.
.	.	8r	.	.	.	.
.	.	8B-	to	.	.	.
=94	=94	=94	=94	=94	=94	=94
4Gm	G:min	8B-	Crack-	.	182.876	.
.	.	8B-	-er-	.	.	.
4FM	F:maj	4A	-box	.	183.36	.
2E-M	E-:maj	8G	Pa-	.	183.843	.
.	.	4.B-	-lace.	.	.	.
=95	=95	=95	=95	=95	=95	=95
2B-M	B-:maj	8r	.	.	184.81	.
.	.	8B-	We've	.	.	.
.	.	8B-	been	.	.	.
.	.	8B-	ex-	.	.	.
2FM	F:maj	8c	-pec-	.	185.777	.
.	.	4B-	-ting	.	.	.
.	.	[8d	you.	C	.	.
=96	=96	=96	=96	=96	=96	=96
1Dm	D:min	8d]	_	.	186.744	.
.	.	8f	_	.	.	.
.	.	2d	_	.	.	.
.	.	4r	.	.	.	.
=97	=97	=97	=97	=97	=97	=97
2E-M	E-:maj	8r	.	.	188.678	newline
.	.	8B-	You	.	.	.
.	.	8B-	bring	.	.	.
.	.	8B-	us	.	.	.
2FM	F:maj	4.c	joy	.	189.653	.
.	.	8B-	in	.	.	.
=98	=98	=98	=98	=98	=98	=98
4Gm	G:min	8B-	Crack-	.	190.628	.
.	.	8B-	-er-	.	.	.
4FM	F:maj	4A	-box	.	191.116	.
2E-M	E-:maj	8G	Pa-	.	191.603	.
.	.	4B-	-lace.	.	.	.
.	.	[8B-	No	.	.	.
=99	=99	=99	=99	=99	=99	=99
1E-mm	E-:min7	8B-]	_	.	192.579	.
.	.	4B-	mat-	.	.	.
.	.	8B-	-ter	.	.	.
.	.	8G-	where	.	.	.
.	.	4A-	you	.	.	.
.	.	[8B-	roam	.	.	.
=100	=100	=100	=100	=100	=100	=100
1E-mm	E-:min7	8B-]	_	.	194.529	.
.	.	8d-	know	.	.	.
.	.	8d-	our	.	.	.
.	.	[8d-	love	.	.	.
.	.	8d-]	_	.	.	.
.	.	4d-	is	.	.	.
.	.	[8c	true.	C	.	.
=101	=101	=101	=101	=101	=101	=101
*>Letter>B2	*>Letter>B2	*>Letter>B2	*>Letter>B2	*>Letter>B2	*>Letter>B2	*>Letter>B2
*>Label>Chorus	*>Label>Chorus	*>Label>Chorus	*>Label>Chorus	*>Label>Chorus	*>Label>Chorus	*>Label>Chorus
2B-M	B-:maj	8c]	_	.	196.48	newline
.	.	4.B-	_	.	.	.
2FM	F:maj	2r	.	.	197.431	.
=102	=102	=102	=102	=102	=102	=102
4Gm	G:min	1r	.	.	198.382	.
4FM	F:maj	.	.	.	198.858	.
2E-M	E-:maj	.	.	.	199.334	.
=103	=103	=103	=103	=103	=103	=103
2B-M	B-:maj	1r	.	.	200.285	.
2FM	F:maj	.	.	.	201.237	.
=104	=104	=104	=104	=104	=104	=104
1Dm	D:min	1r	.	.	202.188	.
=105	=105	=105	=105	=105	=105	=105
2E-M	E-:maj	8r	.	.	204.091	newline
.	.	8B-	You	.	.	.
.	.	8B-	bring	.	.	.
.	.	8B-	such	.	.	.
2FM	F:maj	4.c	joy	.	205.059	.
.	.	8B-	in	.	.	.
=106	=106	=106	=106	=106	=106	=106
4Gm	G:min	8B-	Crack-	.	206.027	.
.	.	8B-	-er-	.	.	.
4FM	F:maj	4A	-box	.	206.511	.
2E-M	E-:maj	8G	Pa-	.	206.995	.
.	.	4B-	-lace.	.	.	.
.	.	[8B-	No	.	.	.
=107	=107	=107	=107	=107	=107	=107
1E-mm	E-:min7	8B-]	_	.	207.963	.
.	.	4B-	mat-	.	.	.
.	.	8B-	-ter	.	.	.
.	.	8G-	where	.	.	.
.	.	4A-	you	.	.	.
.	.	[8B-	roam	.	.	.
=108	=108	=108	=108	=108	=108	=108
1E-mm	E-:min7	8B-]	_	.	209.9	.
.	.	8d-	know	.	.	.
.	.	8d-	our	.	.	.
.	.	[8d-	love,	.	.	.
.	.	8d-]	_	.	.	.
.	.	4.B-	_	.	.	.
=109	=109	=109	=109	=109	=109	=109
1E-mm	E-:min7	1r	.	.	211.836	.
=110	=110	=110	=110	=110	=110	=110
1E-mm	E-:min7	8r	.	.	213.772	.
.	.	8d-	know	.	.	.
.	.	8d-	our	.	.	.
.	.	[8d-	love	.	.	.
.	.	8d-]	_	.	.	.
.	.	4B-	is	.	.	.
.	.	[8d	true.	C	.	.
=111	=111	=111	=111	=111	=111	=111
*>Letter>C2	*>Letter>C2	*>Letter>C2	*>Letter>C2	*>Letter>C2	*>Letter>C2	*>Letter>C2
*>Label>Outro	*>Label>Outro	*>Label>Outro	*>Label>Outro	*>Label>Outro	*>Label>Outro	*>Label>Outro
2E-M	E-:maj	2d]	_	.	215.708	newline
2FM	F:maj	2c	_	.	216.682	.
=112	=112	=112	=112	=112	=112	=112
4Gm	G:min	1r	.	.	217.656	.
4FM	F:maj	.	.	.	218.144	.
2E-M	E-:maj	.	.	.	218.631	.
=113	=113	=113	=113	=113	=113	=113
1E-mm	E-:min7	1r	.	.	219.605	.
=114	=114	=114	=114	=114	=114	=114
1E-mm	E-:min7	1r	.	.	221.554	.
=115	=115	=115	=115	=115	=115	=115
1B-M	B-:maj	1r	.	.	223.502	.
1r;	1r	r;	.	.	234.22	.
1r;	1r	r;	.	.	238.281	.
*-	*-	*-	*-	*-	*-	*-
!!!BillboardChartDate: 1977/02/05
!!!BillboardPeak: 19
!!!BillboardWeeksOnChart: 11
!!!COC: George Harrison
!!!ENC: Nathaniel Condit-Schultz
!!!EST: Awating manual error checking and editing.
!!!OTL: Crackerbox Palace
!!!RDF**chordsym: original McGill chord annotation + (implied pitch class set, with bass pitch in first position)
!!!RDF**harmony: **recip + pitch class of root + harmonic quality
!!!RDF**leadinstrument: original McGill primary instrumentation annotation
!!!RDF**phrase: newline = linebreak in original McGill transcription
!!!RDF**timestamp: McGill audio timestamp in seconds
!!!RDT: 2017/01/12/
!!!SampleActualRank: 49
!!!SampleID#: 1282
!!!SampleTargetRank: 49
!!!MBID: 8e5313b8-a913-4d91-8d28-38db8892f37b